X: 32127
T: Peter Byrne's
R: jig
M: 6/8
K: Dmixolydian
|:"D"AFD c2A|"Am"BAG ~A3|"D"AFD c2A|"Am"BGE "D"EGD|
AFD c2A|"Am"BAG .A.A.A|"D"cde dcA|"Am"GEA "D"D3:|
|:"D"cde dcA|"Am"AGE c2A|"D"cde dcA|"Am"GEA "D"D3|
"D"cde dcA|"Am"AGE c2e|"D"fed "Am"c2A|BGE "D"EGD:|

